malcolm/modules/stats/icons/microsoft-windows.svg

<svg width="50" height="500" version="1.1" viewBox="0 0 192.76 192.76" xmlns="http://www.w3.org/2000/svg">
 <g transform="matrix(.20931 0 0 .20931 56.127 10.59)" clip-rule="evenodd" fill-rule="evenodd">
    <path d="m173.07 155.42 0.108-0.322h-0.967v2.472h0.43v-1.076l0.429-0.322h-0.429v-0.752h0.537-0.108zm1.184 32.137h-0.537v2.365h0.322v-1.826l0.752 1.826h0.43l0.644-1.826v1.826h0.43v-2.365h-0.645l-0.644 1.828-0.752-1.828zm-1.076 0h-1.934v0.322h0.86v2.043h0.322v-2.043h0.752v-0.322zm-71.369-177.13v105.55c22.572-13.113 46.541-11.824 71.584 0.322v-104.69c-24.828-11.824-48.582-11.179-71.584-1.183zm-15.476 7.416v13.328l13.327-6.987v-12.789l-13.327 6.448zm0 15.262v13.329l13.327-6.987v-12.898l-13.327 6.556zm0 15.048v13.328l13.327-6.879v-12.897l-13.327 6.448zm0 15.263v13.328l13.327-6.987v-12.791l-13.327 6.45zm0 15.047v13.221l13.327-6.88v-12.897l-13.327 6.556zm0 15.477v13.329l13.327-6.879v-12.898l-13.327 6.448zm0 15.262v13.328l13.327-6.984v-12.793l-13.327 6.449zm-15.047-86.737 12.359-6.235v12.039l-12.359 6.234v-12.038z"/>
    <path d="m71.282 37.834 12.359-6.234v12.038l-12.359 6.234v-12.038zm0 14.617 12.359-6.234v12.039l-12.359 6.234v-12.039z" fill="#d97941"/>
    <path d="m71.282 67.714 12.359-6.234v12.038l-12.359 6.342v-12.146z"/>
    <path d="m71.282 83.084 12.359-6.234v12.038l-12.359 6.342v-12.146zm0 14.727 12.359-6.237v12.039l-12.359 6.342v-12.144z" fill="#4f89c8"/>
    <path d="m71.282 113.07 12.359-6.234v12.037l-12.359 6.232v-12.035zm-13.327-91.146 10.532-4.944v10.533l-10.532 5.053v-10.642z"/>
    <path d="m57.955 37.403 10.532-5.05v10.64l-10.532 5.052v-10.642zm0 14.618 10.532-4.944v10.534l-10.532 5.052v-10.642z" fill="#d97941"/>
    <path d="m57.955 67.284 10.532-4.944v10.534l-10.532 5.051v-10.641z"/>
    <path d="m57.955 82.762 10.532-5.053v10.642l-10.532 5.051v-10.64zm0 14.617 10.532-5.051v10.641l-10.532 4.943v-10.533z" fill="#4f89c8"/>
    <path d="m57.955 112.53 10.532-4.943v10.533l-10.532 5.053v-10.643zm-12.363-82.438 8.599-3.869v-7.846l-8.599 4.084v7.631z"/>
    <path d="m45.592 45.465 8.599-3.869v-7.846l-8.599 4.084v7.631zm0 14.618 8.599-3.87v-7.954l-8.599 4.192v7.632z" fill="#d97941"/>
    <path d="m45.592 75.345 8.599-3.87v-7.847l-8.599 4.086v7.631z"/>
    <path d="m45.592 90.823 8.599-3.977v-7.846l-8.599 4.084v7.739zm0 14.726 8.599-3.977v-7.847l-8.599 4.086v7.738z" fill="#4f89c8"/>
    <path d="m45.592 120.7 8.599-3.869v-7.846l-8.599 4.086v7.629zm-11.608-103.29 6.234-3.761v6.556l-6.234 3.546v-6.341z"/>
    <path d="m33.984 32.783 6.234-3.762v6.663l-6.234 3.44v-6.341zm0 14.617 6.234-3.762v6.663l-6.234 3.548v-6.449z" fill="#d97941"/>
    <path d="m33.984 62.663 6.234-3.763v6.664l-6.234 3.547v-6.448z"/>
    <path d="m33.984 78.138 6.234-3.761v6.557l-6.234 3.547v-6.343zm0 14.619 6.234-3.761v6.663l-6.234 3.546v-6.448z" fill="#4f89c8"/>
    <path d="m33.984 108.02 6.234-3.762v6.664l-6.234 3.439v-6.341zm-10.64-94.155 4.836-2.471v4.729l-4.836 2.149v-4.407z"/>
    <path d="m23.344 29.127 4.836-2.364v4.729l-4.836 2.15v-4.515zm0 14.618 4.836-2.256v4.728l-4.836 2.042v-4.514z" fill="#d97941"/>
    <path d="m23.344 59.008 4.836-2.364v4.728l-4.836 2.15v-4.514z"/>
    <path d="m23.344 74.486 4.836-2.365v4.622l-4.836 2.149v-4.406zm0 14.724 4.836-2.364v4.622l-4.836 2.15v-4.408z" fill="#4f89c8"/>
    <path d="m23.344 104.47 4.836-2.473v4.73l-4.836 2.151v-4.408z"/>
    <path d="m101.7 25.151c9.459-4.191 17.197-6.449 23.971-6.879v33.32c-8.062 0.644-16.016 3.117-23.971 6.771v-33.212z" fill="#d97941"/>
    <path d="m135.02 16.767v34.072h9.459c4.191 0 11.07 2.149 14.188 3.332v-33.642c-7.847-3.331-15.8-4.514-23.647-3.762z" fill="#8abe6c"/>
    <path d="m135.02 60.62v32.782c9.137-0.43 16.123 0.968 23.646 3.439v-33.104c-7.846-3.117-15.799-4.084-23.646-3.117z" fill="#f2ca30"/>
    <path d="m101.7 68.789c8.814-4.299 16.768-6.234 23.971-6.771v31.813c-8.492 1.506-16.66 3.765-23.971 7.202v-32.244z" fill="#4f89c8"/>
  </g>
</svg>

<svg width="50" height="500" version="1.1" viewBox="0 0 192.76 192.76" xmlns="http://www.w3.org/2000/svg">
 <g transform="scale(.02)" clip-rule="evenodd" fill-rule="evenodd">
  <path d="m173.07 155.42 0.108-0.322h-0.967v2.472h0.43v-1.076l0.429-0.322h-0.429v-0.752h0.537-0.108zm1.184 32.137h-0.537v2.365h0.322v-1.826l0.752 1.826h0.43l0.644-1.826v1.826h0.43v-2.365h-0.645l-0.644 1.828-0.752-1.828zm-1.076 0h-1.934v0.322h0.86v2.043h0.322v-2.043h0.752v-0.322zm-71.369-177.13v105.55c22.572-13.113 46.541-11.824 71.584 0.322v-104.69c-24.828-11.824-48.582-11.179-71.584-1.183zm-15.476 7.416v13.328l13.327-6.987v-12.789l-13.327 6.448zm0 15.262v13.329l13.327-6.987v-12.898l-13.327 6.556zm0 15.048v13.328l13.327-6.879v-12.897l-13.327 6.448zm0 15.263v13.328l13.327-6.987v-12.791l-13.327 6.45zm0 15.047v13.221l13.327-6.88v-12.897l-13.327 6.556zm0 15.477v13.329l13.327-6.879v-12.898l-13.327 6.448zm0 15.262v13.328l13.327-6.984v-12.793l-13.327 6.449zm-15.047-86.737 12.359-6.235v12.039l-12.359 6.234v-12.038z"/>
  <path d="m71.282 37.834 12.359-6.234v12.038l-12.359 6.234v-12.038zm0 14.617 12.359-6.234v12.039l-12.359 6.234v-12.039z" fill="#d97941"/>
  <path d="M71.282 67.714l12.359-6.234v12.038L71.282 79.86V67.714z"/>
  <path d="m71.282 83.084 12.359-6.234v12.038l-12.359 6.342v-12.146zm0 14.727 12.359-6.237v12.039l-12.359 6.342v-12.144z" fill="#4f89c8"/>
  <path d="M71.282 113.072l12.359-6.234v12.037l-12.359 6.232v-12.035zM57.955 21.926l10.532-4.944v10.533l-10.532 5.053V21.926z"/>
  <path d="m57.955 37.403 10.532-5.05v10.64l-10.532 5.052v-10.642zm0 14.618 10.532-4.944v10.534l-10.532 5.052v-10.642z" fill="#d97941"/>
  <path d="M57.955 67.284l10.532-4.944v10.534l-10.532 5.051V67.284z"/>
  <path d="m57.955 82.762 10.532-5.053v10.642l-10.532 5.051v-10.64zm0 14.617 10.532-5.051v10.641l-10.532 4.943v-10.533z" fill="#4f89c8"/>
  <path d="M57.955 112.533l10.532-4.943v10.533l-10.532 5.053v-10.643zM45.592 30.095l8.599-3.869V18.38l-8.599 4.084v7.631z"/>
  <path d="m45.592 45.465 8.599-3.869v-7.846l-8.599 4.084v7.631zm0 14.618 8.599-3.87v-7.954l-8.599 4.192v7.632z" fill="#d97941"/>
  <path d="m45.592 75.345 8.599-3.87v-7.847l-8.599 4.086v7.631z"/>
  <path d="m45.592 90.823 8.599-3.977v-7.846l-8.599 4.084v7.739zm0 14.726 8.599-3.977v-7.847l-8.599 4.086v7.738z" fill="#4f89c8"/>
  <path d="m45.592 120.7 8.599-3.869v-7.846l-8.599 4.086v7.629zm-11.608-103.29 6.234-3.761v6.556l-6.234 3.546v-6.341z"/>
  <path d="m33.984 32.783 6.234-3.762v6.663l-6.234 3.44v-6.341zm0 14.617 6.234-3.762v6.663l-6.234 3.548v-6.449z" fill="#d97941"/>
  <path d="m33.984 62.663 6.234-3.763v6.664l-6.234 3.547v-6.448z"/>
  <path d="m33.984 78.138 6.234-3.761v6.557l-6.234 3.547v-6.343zm0 14.619 6.234-3.761v6.663l-6.234 3.546v-6.448z" fill="#4f89c8"/>
  <path d="m33.984 108.02 6.234-3.762v6.664l-6.234 3.439v-6.341zm-10.64-94.155 4.836-2.471v4.729l-4.836 2.149v-4.407z"/>
  <path d="m23.344 29.127 4.836-2.364v4.729l-4.836 2.15v-4.515zm0 14.618 4.836-2.256v4.728l-4.836 2.042v-4.514z" fill="#d97941"/>
  <path d="m23.344 59.008 4.836-2.364v4.728l-4.836 2.15v-4.514z"/>
  <path d="m23.344 74.486 4.836-2.365v4.622l-4.836 2.149v-4.406zm0 14.724 4.836-2.364v4.622l-4.836 2.15v-4.408z" fill="#4f89c8"/>
  <path d="M23.344 104.473L28.18 102v4.73l-4.836 2.151v-4.408z"/>
  <path d="M101.697 25.151c9.459-4.191 17.197-6.449 23.971-6.879v33.32c-8.062.644-16.016 3.117-23.971 6.771V25.151z" fill="#d97941"/>
  <path d="m135.02 16.767v34.072h9.459c4.191 0 11.07 2.149 14.188 3.332v-33.642c-7.847-3.331-15.8-4.514-23.647-3.762z" fill="#8abe6c"/>
  <path d="M135.018 60.62v32.782c9.137-.43 16.123.968 23.646 3.439V63.737c-7.846-3.117-15.799-4.084-23.646-3.117z" fill="#f2ca30"/>
  <path d="m101.7 68.789c8.814-4.299 16.768-6.234 23.971-6.771v31.813c-8.492 1.506-16.66 3.765-23.971 7.202v-32.244z" fill="#4f89c8"/>
 </g>
</svg>
